X:208
%%etbk:tnset id:152,pos:2,rep:3x,ant:
%%etbk:wsite http://www.trad.katesplacedoolin.com/tunes/greengates.html
%%etbk:skill ?
%%etbk:pldat 2013-11-16T15:15,2013-11-12T17:50,2013-11-10T15:33,2013-05-14T18:58
T:Green Gates, The
Z: Piano Box Version by Martin Fleischmann
H: Created 2013-02-19 /  Last Modified 2013-02-19
R:reel
M:4/4
K: Gmaj
|: "G"!1!G!2!B!3!d!5!g !4!e2dB | !1!G!2!B!3!d!5!g !4!e!5!g!3!d!5!g | "D"!4!e!1!A!2!A!1!A !5!e!1!A!3!c!1!A | !2!(3B!3!c!4!d !2!ef !4!ge!1!d!2!B |
"G"!1!G!2!B!3!d!5!g !4!e2dB | !1!G!2!B!3!d!5!g !4!e!5!g!3!d!2!B | "C"!1!cdef !5!ged!1!c |1 "D"!3!B!1!G!4!A!2!F "G"!1!G3!1!G:|2 "D"!3!B!1!G!4!A!2!F "G"!1!G2!2!B!3!c||
|: "G"!1!d!3!g!2!g!3!g !5!b!3!g!2!g!3!g | !1!d2 !5!gg !3!e!2!d!1!B!2!d | "D"!3!e!1!A!2!A!1!A !5!e!1!A!3!c!1!A | !2!(3B!3!c!4!d !2!ef !4!ge!1!d!2!B|
"G"!1!d!3!g!2!g!3!g !5!b!3!g!2!g!3!g | !1!d2 !5!gg !3!e!2!d!1!B!2!d| "D"!1!ABc!4!d !2!efge|1 !1!d!2!B!1!A!2!B "G"!1!G2!2!B!3!c:|2 !1!d!2!B!1!A!2!B "G"!1!G4|| 
